resources/svg/tag.svg

<svg xmlns="http://www.w3.org/2000/svg" viewBox="0 0 15 15" fill="currentColor"><path d="M10 4.5C10 4.22386 10.2239 4 10.5 4C10.7761 4 11 4.22386 11 4.5C11 4.77614 10.7761 5 10.5 5C10.2239 5 10 4.77614 10 4.5Z" fill="black"/><path fill-rule="evenodd" clip-rule="evenodd" d="M7.14645 0.146447C7.24021 0.0526784 7.36739 0 7.5 0H13.5C14.3284 0 15 0.671573 15 1.5V7.5C15 7.63261 14.9473 7.75979 14.8536 7.85355L7.85355 14.8536C7.65829 15.0488 7.34171 15.0488 7.14645 14.8536L0.146447 7.85355C-0.0488155 7.65829 -0.0488155 7.34171 0.146447 7.14645L7.14645 0.146447ZM10.5 3C9.67157 3 9 3.67157 9 4.5C9 5.32843 9.67157 6 10.5 6C11.3284 6 12 5.32843 12 4.5C12 3.67157 11.3284 3 10.5 3Z" fill="black"/></svg>

<svg xmlns="http://www.w3.org/2000/svg" viewBox="0 0 15 15" fill="currentColor"><path d="M10 4.5a.5.5 0 111 0 .5.5 0 01-1 0z" fill="currentColor"/><path fill-rule="evenodd" clip-rule="evenodd" d="M7.146.146A.5.5 0 017.5 0h6A1.5 1.5 0 0115 1.5v6a.5.5 0 01-.146.354l-7 7a.5.5 0 01-.708 0l-7-7a.5.5 0 010-.708l7-7zM10.5 3a1.5 1.5 0 100 3 1.5 1.5 0 000-3z" fill="currentColor"/></svg>
